assets/icon/stats/magic.svg

<?xml version="1.0" encoding="iso-8859-1"?>
<!-- Generator: Adobe Illustrator 19.0.0, SVG Export Plug-In . SVG Version: 6.00 Build 0)  -->
<svg xmlns="http://www.w3.org/2000/svg" xmlns:xlink="http://www.w3.org/1999/xlink" version="1.1" id="Capa_1" x="0px" y="0px" viewBox="0 0 512 512" style="enable-background:new 0 0 512 512;" xml:space="preserve" width="512" height="512">
<path d="M444.999,467h-9.644l-9.942-39.767C422.576,415.888,411.194,407,399.499,407h-7.5v-22.5c0-6.866-3.095-13.02-7.959-17.15  c49.052-38.969,77.961-98.291,77.961-161.35c0-113.589-92.411-206-206-206s-206,92.411-206,206  c0,63.058,28.909,122.38,77.96,161.349c-4.865,4.13-7.96,10.285-7.96,17.151V407h-7.5c-11.695,0-23.077,8.888-25.914,20.233  L76.645,467h-9.144c-12.407,0-22.5,10.093-22.5,22.5s10.093,22.5,22.5,22.5h376.998c12.407,0,22.5-10.093,22.5-22.5  S457.13,467,444.999,467z M65.001,206c0-105.318,85.682-191,191-191s191,85.682,191,191c0,62.034-30.181,120.166-80.829,156H145.83  C95.182,326.166,65.001,268.034,65.001,206z M101.139,430.871c1.161-4.643,6.576-8.871,11.362-8.871h45c4.142,0,7.5-3.358,7.5-7.5  s-3.358-7.5-7.5-7.5h-22.5v-22.5c0-4.136,3.364-7.5,7.5-7.5h0.842c0.024,0,225.225,0,225.225,0c0.015,0,0.93,0,0.93,0  c4.136,0,7.5,3.364,7.5,7.5V407H187.5c-4.142,0-7.5,3.358-7.5,7.5s3.358,7.5,7.5,7.5h211.999c4.786,0,10.201,4.229,11.362,8.871  L419.893,467H92.107L101.139,430.871z M444.499,497H67.501c-4.135,0-7.5-3.364-7.5-7.5s3.365-7.5,7.5-7.5h14.974  c0.055,0,346.995,0,346.995,0c0.055,0,15.529,0,15.529,0c3.729,0,7,3.505,7,7.5C451.999,493.636,448.634,497,444.499,497z"/>















</svg>

<?xml version="1.0" encoding="UTF-8" standalone="no"?>
<!DOCTYPE svg PUBLIC "-//W3C//DTD SVG 1.1//EN" "http://www.w3.org/Graphics/SVG/1.1/DTD/svg11.dtd">
<svg width="100%" height="100%" viewBox="0 0 512 512" version="1.1" xmlns="http://www.w3.org/2000/svg" xmlns:xlink="http://www.w3.org/1999/xlink" xml:space="preserve" xmlns:serif="http://www.serif.com/" style="fill-rule:evenodd;clip-rule:evenodd;stroke-linejoin:round;stroke-miterlimit:2;">
    <path d="M444.999,467L435.355,467L425.413,427.233C422.576,415.888 411.194,407 399.499,407L391.999,407L391.999,384.5C391.999,377.634 388.904,371.48 384.04,367.35C433.092,328.381 462.001,269.059 462.001,206C462.001,92.411 369.59,0 256.001,0C142.412,0 50.001,92.411 50.001,206C50.001,269.058 78.91,328.38 127.961,367.349C123.096,371.479 120.001,377.634 120.001,384.5L120.001,407L112.501,407C100.806,407 89.424,415.888 86.587,427.233L76.645,467L67.501,467C55.094,467 45.001,477.093 45.001,489.5C45.001,501.907 55.094,512 67.501,512L444.499,512C456.906,512 466.999,501.907 466.999,489.5C466.999,477.093 457.13,467 444.999,467ZM65.001,206C65.001,100.682 150.683,15 256.001,15C361.319,15 447.001,100.682 447.001,206C447.001,268.034 416.82,326.166 366.172,362L145.83,362C95.182,326.166 65.001,268.034 65.001,206ZM101.139,430.871C102.3,426.228 107.715,422 112.501,422L157.501,422C161.643,422 165.001,418.642 165.001,414.5C165.001,410.358 161.643,407 157.501,407L135.001,407L135.001,384.5C135.001,380.364 138.365,377 142.501,377L369.498,377C373.634,377 376.998,380.364 376.998,384.5L376.998,407L187.5,407C183.358,407 180,410.358 180,414.5C180,418.642 183.358,422 187.5,422L399.499,422C404.285,422 409.7,426.229 410.861,430.871L419.893,467L92.107,467L101.139,430.871ZM444.499,497L67.501,497C63.366,497 60.001,493.636 60.001,489.5C60.001,485.364 63.366,482 67.501,482L444.999,482C448.728,482 451.999,485.505 451.999,489.5C451.999,493.636 448.634,497 444.499,497Z" style="fill:white;fill-rule:nonzero;"/>
</svg>
